trunk/clients/skds/NBprojects/swing/src/skdsswing/resources/cancel.svg

<?xml version="1.0" encoding="UTF-8" standalone="no"?>
<!-- Created with Inkscape (http://www.inkscape.org/) -->

<svg
   xmlns:dc="http://purl.org/dc/elements/1.1/"
   xmlns:cc="http://creativecommons.org/ns#"
   xmlns:rdf="http://www.w3.org/1999/02/22-rdf-syntax-ns#"
   xmlns:svg="http://www.w3.org/2000/svg"
   xmlns="http://www.w3.org/2000/svg"
   xmlns:xlink="http://www.w3.org/1999/xlink"
   xmlns:sodipodi="http://sodipodi.sourceforge.net/DTD/sodipodi-0.dtd"
   xmlns:inkscape="http://www.inkscape.org/namespaces/inkscape"
   width="143.64673"
   height="143.64673"
   id="svg2046"
   sodipodi:version="0.32"
   inkscape:version="0.47 r22583"
   version="1.0"
   sodipodi:docname="cancel.svg"
   inkscape:output_extension="org.inkscape.output.svg.inkscape"
   inkscape:export-filename="/home/steffen/Desktop/workcopies/oobd/trunk/clients/skds/NBprojects/swing/src/skdsswing/resources/cancel.png"
   inkscape:export-xdpi="20.049999"
   inkscape:export-ydpi="20.049999">
  <defs
     id="defs2048">
    <inkscape:perspective
       sodipodi:type="inkscape:persp3d"
       inkscape:vp_x="0 : 79.803741 : 1"
       inkscape:vp_y="0 : 1000 : 0"
       inkscape:vp_z="159.60748 : 79.803741 : 1"
       inkscape:persp3d-origin="79.803741 : 53.202494 : 1"
       id="perspective3683" />
    <linearGradient
       inkscape:collect="always"
       id="linearGradient5190">
      <stop
         style="stop-color:#ffffff;stop-opacity:1"
         offset="0"
         id="stop5192" />
      <stop
         style="stop-color:#ff0000;stop-opacity:1"
         offset="1"
         id="stop5194" />
    </linearGradient>
    <linearGradient
       inkscape:collect="always"
       xlink:href="#linearGradient5190"
       id="linearGradient2109"
       gradientUnits="userSpaceOnUse"
       gradientTransform="matrix(0.312273,0,0,0.320491,127.55,434.3769)"
       x1="264.582"
       y1="296.37491"
       x2="380.6846"
       y2="553.74487" />
    <linearGradient
       inkscape:collect="always"
       id="linearGradient5197">
      <stop
         style="stop-color:#ffffff;stop-opacity:1"
         offset="0"
         id="stop5199" />
      <stop
         style="stop-color:#ff0000;stop-opacity:1"
         offset="1"
         id="stop5201" />
    </linearGradient>
    <linearGradient
       inkscape:collect="always"
       xlink:href="#linearGradient5197"
       id="linearGradient2107"
       gradientUnits="userSpaceOnUse"
       gradientTransform="matrix(-0.301633,0.08082223,-0.08294933,-0.30957,402.8575,730.1118)"
       x1="249.48328"
       y1="262.87494"
       x2="272.02597"
       y2="427.54285" />
  </defs>
  <sodipodi:namedview
     id="base"
     pagecolor="#ffffff"
     bordercolor="#666666"
     borderopacity="1.0"
     gridtolerance="10000"
     guidetolerance="10"
     objecttolerance="10"
     inkscape:pageopacity="0.0"
     inkscape:pageshadow="2"
     inkscape:zoom="1.4"
     inkscape:cx="77.873428"
     inkscape:cy="75.013213"
     inkscape:document-units="px"
     inkscape:current-layer="layer1"
     inkscape:window-width="853"
     inkscape:window-height="573"
     inkscape:window-x="427"
     inkscape:window-y="124"
     showgrid="false"
     inkscape:window-maximized="0" />
  <metadata
     id="metadata2051">
    <rdf:RDF>
      <cc:Work
         rdf:about="">
        <dc:format>image/svg+xml</dc:format>
        <dc:type
           rdf:resource="http://purl.org/dc/dcmitype/StillImage" />
        <dc:title>round error warning button</dc:title>
        <dc:creator>
          <cc:Agent>
            <dc:title>Lumen Design Studio</dc:title>
          </cc:Agent>
        </dc:creator>
        <dc:contributor>
          <cc:Agent>
            <dc:title>Lumen Design Studio</dc:title>
          </cc:Agent>
        </dc:contributor>
        <dc:description>error warning icon</dc:description>
        <dc:subject>
          <rdf:Bag>
            <rdf:li>error</rdf:li>
            <rdf:li>icon</rdf:li>
            <rdf:li>button</rdf:li>
            <rdf:li>red</rdf:li>
            <rdf:li>stop</rdf:li>
            <rdf:li>no</rdf:li>
            <rdf:li>warning</rdf:li>
            <rdf:li>negative</rdf:li>
            <rdf:li>delete</rdf:li>
            <rdf:li>cancel</rdf:li>
          </rdf:Bag>
        </dc:subject>
        <cc:license
           rdf:resource="http://web.resource.org/cc/PublicDomain" />
      </cc:Work>
      <cc:License
         rdf:about="http://web.resource.org/cc/PublicDomain">
        <cc:permits
           rdf:resource="http://web.resource.org/cc/Reproduction" />
        <cc:permits
           rdf:resource="http://web.resource.org/cc/Distribution" />
        <cc:permits
           rdf:resource="http://web.resource.org/cc/DerivativeWorks" />
      </cc:License>
    </rdf:RDF>
  </metadata>
  <g
     inkscape:label="Layer 1"
     inkscape:groupmode="layer"
     id="layer1"
     transform="translate(-319.60517,-437.68167)">
    <g
       id="g2100"
       transform="matrix(0.9,0,0,0.9,170.4421,-31.11303)">
      <path
         sodipodi:type="arc"
         style="fill:#ff0000;fill-opacity:1;fill-rule:evenodd;stroke:#cb0000;stroke-width:20.127882;stroke-linecap:butt;stroke-linejoin:miter;stroke-miterlimit:4;stroke-opacity:1;stroke-dasharray:none;stroke-dashoffset:0;marker-start:none;marker-mid:none;marker-end:none"
         id="path2174"
         sodipodi:cx="384.28571"
         sodipodi:cy="559.50507"
         sodipodi:rx="250"
         sodipodi:ry="250"
         d="m 634.28571,559.50507 c 0,138.07118 -111.92882,250 -250,250 -138.07119,0 -250,-111.92882 -250,-250 0,-138.07119 111.92881,-250 250,-250 138.07118,0 250,111.92881 250,250 z"
         transform="matrix(0.306862,0,0,0.306862,127.6178,428.9959)" />
      <path
         style="fill:url(#linearGradient2107);fill-opacity:1;fill-rule:evenodd;stroke:none"
         d="m 264.19015,668.93136 c 19.04664,-5.10352 34.17323,-17.6582 43.2287,-33.82394 14.70769,-34.81809 -40.16681,46.69991 -85.49128,31.89063 13.17603,4.83221 27.81329,5.80499 42.26258,1.93331 z"
         id="path2540"
         sodipodi:nodetypes="cccc" />
      <path
         sodipodi:nodetypes="ccccc"
         id="path2197"
         d="m 245.65747,529.36222 c -39.43704,0 -71.4422,32.84735 -71.4422,73.32216 0,5.47391 0.60745,10.8018 1.7175,15.93437 39.20511,-75.4678 81.44559,-27.96293 135.90705,-43.54661 -10.63543,-26.79776 -36.26433,-45.70992 -66.18235,-45.70992 z"
         style="fill:url(#linearGradient2109);fill-opacity:1;fill-rule:evenodd;stroke:none" />
      <path
         sodipodi:nodetypes="ccccccccccccc"
         id="text2705"
         d="m 267.42338,640.03739 -21.67907,-21.67908 -21.88299,21.88298 -17.87556,-17.87556 21.88298,-21.88298 -21.67908,-21.67908 17.39979,-17.39979 21.67908,21.67908 21.95095,-21.95095 17.87556,17.87556 -21.95095,21.95096 21.67908,21.67907 -17.39979,17.39979"
         style="font-size:660.22442627px;font-style:italic;font-variant:normal;font-weight:bold;font-stretch:normal;line-height:100%;writing-mode:lr-tb;text-anchor:start;opacity:0.73529412;fill:#ffffff;fill-opacity:1;stroke:none;font-family:Arial" />
      <path
         id="text2713"
         d="m 267.29788,637.00578 -21.5875,-21.5875 -21.75749,21.75749 -14.90161,-14.90162 21.75749,-21.75748 -21.5875,-21.5875 14.50499,-14.50499 21.5875,21.5875 21.81414,-21.81414 14.90161,14.90161 -21.81414,21.81414 21.5875,21.5875 -14.50499,14.50499"
         style="font-size:550.38305664px;font-style:italic;font-variant:normal;font-weight:bold;font-stretch:normal;line-height:100%;writing-mode:lr-tb;text-anchor:start;fill:#ffffff;fill-opacity:1;stroke:none;font-family:Arial" />
    </g>
  </g>
</svg>

<?xml version="1.0" encoding="UTF-8" standalone="no"?>
<!-- Created with Inkscape (http://www.inkscape.org/) -->
<svg
   xmlns:dc="http://purl.org/dc/elements/1.1/"
   xmlns:cc="http://web.resource.org/cc/"
   xmlns:rdf="http://www.w3.org/1999/02/22-rdf-syntax-ns#"
   xmlns:svg="http://www.w3.org/2000/svg"
   xmlns="http://www.w3.org/2000/svg"
   xmlns:xlink="http://www.w3.org/1999/xlink"
   xmlns:sodipodi="http://sodipodi.sourceforge.net/DTD/sodipodi-0.dtd"
   xmlns:inkscape="http://www.inkscape.org/namespaces/inkscape"
   width="159.60748"
   height="159.60748"
   id="svg2046"
   sodipodi:version="0.32"
   inkscape:version="0.45.1"
   version="1.0"
   sodipodi:docbase="C:\Documents and Settings\stko1\Desktop\SVN_Icons"
   sodipodi:docname="red_cancel.svg"
   inkscape:output_extension="org.inkscape.output.svg.inkscape">
  <defs
     id="defs2048">
    <linearGradient
       inkscape:collect="always"
       id="linearGradient5190">
      <stop
         style="stop-color:#ffffff;stop-opacity:1"
         offset="0"
         id="stop5192" />
      <stop
         style="stop-color:#ff0000;stop-opacity:1"
         offset="1"
         id="stop5194" />
    </linearGradient>
    <linearGradient
       inkscape:collect="always"
       xlink:href="#linearGradient5190"
       id="linearGradient2109"
       gradientUnits="userSpaceOnUse"
       gradientTransform="matrix(0.312273,0,0,0.320491,127.55,434.3769)"
       x1="264.582"
       y1="296.37491"
       x2="380.6846"
       y2="553.74487" />
    <linearGradient
       inkscape:collect="always"
       id="linearGradient5197">
      <stop
         style="stop-color:#ffffff;stop-opacity:1"
         offset="0"
         id="stop5199" />
      <stop
         style="stop-color:#ff0000;stop-opacity:1"
         offset="1"
         id="stop5201" />
    </linearGradient>
    <linearGradient
       inkscape:collect="always"
       xlink:href="#linearGradient5197"
       id="linearGradient2107"
       gradientUnits="userSpaceOnUse"
       gradientTransform="matrix(-0.301633,8.082223e-2,-8.294933e-2,-0.30957,402.8575,730.1118)"
       x1="249.48328"
       y1="262.87494"
       x2="272.02597"
       y2="427.54285" />
  </defs>
  <sodipodi:namedview
     id="base"
     pagecolor="#ffffff"
     bordercolor="#666666"
     borderopacity="1.0"
     gridtolerance="10000"
     guidetolerance="10"
     objecttolerance="10"
     inkscape:pageopacity="0.0"
     inkscape:pageshadow="2"
     inkscape:zoom="1.4"
     inkscape:cx="85.853793"
     inkscape:cy="82.99359"
     inkscape:document-units="px"
     inkscape:current-layer="layer1"
     inkscape:window-width="853"
     inkscape:window-height="573"
     inkscape:window-x="427"
     inkscape:window-y="124" />
  <metadata
     id="metadata2051">
    <rdf:RDF>
      <cc:Work
         rdf:about="">
        <dc:format>image/svg+xml</dc:format>
        <dc:type
           rdf:resource="http://purl.org/dc/dcmitype/StillImage" />
        <dc:title>round error warning button</dc:title>
        <dc:creator>
          <cc:Agent>
            <dc:title>Lumen Design Studio</dc:title>
          </cc:Agent>
        </dc:creator>
        <dc:contributor>
          <cc:Agent>
            <dc:title>Lumen Design Studio</dc:title>
          </cc:Agent>
        </dc:contributor>
        <dc:description>error warning icon</dc:description>
        <dc:subject>
          <rdf:Bag>
            <rdf:li>error</rdf:li>
            <rdf:li>icon</rdf:li>
            <rdf:li>button</rdf:li>
            <rdf:li>red</rdf:li>
            <rdf:li>stop</rdf:li>
            <rdf:li>no</rdf:li>
            <rdf:li>warning</rdf:li>
            <rdf:li>negative</rdf:li>
            <rdf:li>delete</rdf:li>
            <rdf:li>cancel</rdf:li>
          </rdf:Bag>
        </dc:subject>
        <cc:license
           rdf:resource="http://web.resource.org/cc/PublicDomain" />
      </cc:Work>
      <cc:License
         rdf:about="http://web.resource.org/cc/PublicDomain">
        <cc:permits
           rdf:resource="http://web.resource.org/cc/Reproduction" />
        <cc:permits
           rdf:resource="http://web.resource.org/cc/Distribution" />
        <cc:permits
           rdf:resource="http://web.resource.org/cc/DerivativeWorks" />
      </cc:License>
    </rdf:RDF>
  </metadata>
  <g
     inkscape:label="Layer 1"
     inkscape:groupmode="layer"
     id="layer1"
     transform="translate(-311.6248,-429.7013)">
    <g
       id="g2100"
       transform="matrix(0.9,0,0,0.9,170.4421,-31.11303)">
      <path
         sodipodi:type="arc"
         style="fill:red;fill-opacity:1;fill-rule:evenodd;stroke:#cb0000;stroke-width:20.127882;stroke-linecap:butt;stroke-linejoin:miter;marker-start:none;marker-mid:none;marker-end:none;stroke-miterlimit:4;stroke-dasharray:none;stroke-dashoffset:0;stroke-opacity:1"
         id="path2174"
         sodipodi:cx="384.28571"
         sodipodi:cy="559.50507"
         sodipodi:rx="250"
         sodipodi:ry="250"
         d="M 634.28571 559.50507 A 250 250 0 1 1  134.28571,559.50507 A 250 250 0 1 1  634.28571 559.50507 z"
         transform="matrix(0.306862,0,0,0.306862,127.6178,428.9959)" />
      <path
         style="fill:url(#linearGradient2107);fill-opacity:1;fill-rule:evenodd;stroke:none;stroke-width:0;stroke-miterlimit:4;stroke-dasharray:none;stroke-dashoffset:0;stroke-opacity:1"
         d="M 264.19015,668.93136 C 283.23679,663.82784 298.36338,651.27316 307.41885,635.10742 C 322.12654,600.28933 267.25204,681.80733 221.92757,666.99805 C 235.1036,671.83026 249.74086,672.80304 264.19015,668.93136 z "
         id="path2540"
         sodipodi:nodetypes="cccc" />
      <path
         sodipodi:nodetypes="ccccc"
         id="path2197"
         d="M 245.65747,529.36222 C 206.22043,529.36222 174.21527,562.20957 174.21527,602.68438 C 174.21527,608.15829 174.82272,613.48618 175.93277,618.61875 C 215.13788,543.15095 257.37836,590.65582 311.83982,575.07214 C 301.20439,548.27438 275.57549,529.36222 245.65747,529.36222 z "
         style="fill:url(#linearGradient2109);fill-opacity:1;fill-rule:evenodd;stroke:none;stroke-width:0;stroke-miterlimit:4;stroke-dasharray:none;stroke-dashoffset:0;stroke-opacity:1" />
      <path
         sodipodi:nodetypes="ccccccccccccc"
         id="text2705"
         d="M 267.42338,640.03739 L 245.74431,618.35831 L 223.86132,640.24129 L 205.98576,622.36573 L 227.86874,600.48275 L 206.18966,578.80367 L 223.58945,561.40388 L 245.26853,583.08296 L 267.21948,561.13201 L 285.09504,579.00757 L 263.14409,600.95853 L 284.82317,622.6376 L 267.42338,640.03739"
         style="font-size:660.22442627px;font-style:italic;font-variant:normal;font-weight:bold;font-stretch:normal;line-height:100%;writing-mode:lr-tb;text-anchor:start;opacity:0.73529412;fill:white;fill-opacity:1;stroke:none;stroke-width:1px;stroke-linecap:butt;stroke-linejoin:miter;stroke-opacity:1;font-family:Arial" />
      <path
         id="text2713"
         d="M 267.29788,637.00578 L 245.71038,615.41828 L 223.95289,637.17577 L 209.05128,622.27415 L 230.80877,600.51667 L 209.22127,578.92917 L 223.72626,564.42418 L 245.31376,586.01168 L 267.1279,564.19754 L 282.02951,579.09915 L 260.21537,600.91329 L 281.80287,622.50079 L 267.29788,637.00578"
         style="font-size:550.38305664px;font-style:italic;font-variant:normal;font-weight:bold;font-stretch:normal;line-height:100%;writing-mode:lr-tb;text-anchor:start;fill:white;fill-opacity:1;stroke:none;stroke-width:1px;stroke-linecap:butt;stroke-linejoin:miter;stroke-opacity:1;font-family:Arial" />
    </g>
  </g>
</svg>
